svg/icon/srn.svg

<svg xmlns="http://www.w3.org/2000/svg" xmlns:xlink="http://www.w3.org/1999/xlink" width="32" height="32" viewBox="0 0 32 32"><defs><linearGradient id="srn-c" x1="50%" x2="50%" y1="0%" y2="100%"><stop offset="0%" stop-color="#FFF" stop-opacity=".5"/><stop offset="100%" stop-opacity=".5"/></linearGradient><circle id="srn-b" cx="16" cy="15" r="15"/><filter id="srn-a" width="111.7%" height="111.7%" x="-5.8%" y="-4.2%" filterUnits="objectBoundingBox"><feOffset dy=".5" in="SourceAlpha" result="shadowOffsetOuter1"/><feGaussianBlur in="shadowOffsetOuter1" result="shadowBlurOuter1" stdDeviation=".5"/><feComposite in="shadowBlurOuter1" in2="SourceAlpha" operator="out" result="shadowBlurOuter1"/><feColorMatrix in="shadowBlurOuter1" values="0 0 0 0 0 0 0 0 0 0 0 0 0 0 0 0 0 0 0.199473505 0"/></filter><path id="srn-e" d="M15.7152874,12.4328186 C16.0212339,12.5575662 16.3271804,12.4951924 16.5719375,12.4328186 C16.7555054,13.0565564 17.0614519,13.6179204 17.3673983,13.8674156 C17.1838304,15.4267601 16.6331268,15.9881241 16.0212339,15.9881241 C15.1645838,15.9881241 14.7362588,14.1792845 14.7362588,13.8674156 C14.9198266,13.742668 15.4705303,13.3684253 15.7152874,12.4328186 Z M14.7974483,17.9217113 C15.164584,17.6098424 15.4093412,17.1108521 15.7152877,16.299993 C15.9600448,16.4247405 16.3271806,16.3623668 16.5719378,16.299993 C16.7555056,17.1732259 16.9390735,17.7345899 17.3673986,17.9840851 C17.24502,18.9820655 16.6331271,19.6681771 16.0824234,19.6681771 C15.2869626,19.6681771 14.9198269,18.4207015 14.7974483,17.9217113 Z M9.90230493,19.8552985 C10.1470621,19.5434296 10.1470621,19.0444393 10.0246835,18.1088326 C10.2082514,18.1712064 10.3918193,18.1712064 10.5141979,18.1088326 C10.8813336,18.9820655 11.1872801,19.5434296 11.6767944,19.8552985 C11.7379837,20.2919149 11.6767944,20.7909052 11.4932265,20.8532789 C10.8201443,21.1651478 10.2082514,20.3542887 9.90230493,19.8552985 Z M7.33235467,18.1712064 C7.45473325,18.1712064 7.51592254,18.1712064 7.63830113,18.2335802 C8.06662617,19.3563082 8.80089767,19.980046 8.80089767,19.980046 C9.04565484,20.4790363 9.16803343,20.9780265 8.98446555,20.9780265 C8.43376192,21.0404003 8.00543688,20.6661576 7.57711183,19.8552985 C7.63830113,19.6681771 7.57711183,19.5434296 7.33235467,18.1712064 Z M5.68024378,18.1712064 C6.2921367,20.7909052 7.45473325,20.6661576 7.39354396,20.54141 C7.14878679,20.1047936 6.90402962,19.9176722 6.65927245,19.7305509 C6.10856883,19.1691869 5.68024378,17.9840851 5.68024378,18.1712064 Z M13.1453374,19.8552985 C13.5736625,19.5434296 13.6348517,18.857318 13.696041,17.9840851 C13.9407982,18.0464588 14.2467447,18.0464588 14.4303125,17.9840851 C14.5526911,18.5454491 14.736259,19.3563082 15.2869626,19.7305509 C15.2257733,20.4166625 15.0422055,20.7909052 14.6138804,20.8532789 C14.307934,20.9780265 13.4512839,20.9780265 13.1453374,19.8552985 Z M7.88305829,17.9217113 C8.12781546,17.6098424 8.18900475,17.1108521 8.25019405,16.4247405 C8.43376192,16.4871143 8.67851909,16.4871143 8.80089767,16.4247405 C8.98446555,17.2355997 9.29041201,17.7345899 9.65754776,17.9840851 C9.77992635,19.2939344 9.65754776,19.7305509 9.4127906,19.7305509 C8.86208697,19.7305509 8.12781546,18.5454491 7.88305829,17.9217113 Z M5.98619024,17.9217113 C5.98619024,17.7969637 6.04737953,16.9861046 6.10856883,16.4247405 C6.16975812,16.4247405 6.2921367,16.4247405 6.35332599,16.4247405 C6.65927245,17.6098424 7.0875975,17.9840851 7.0875975,17.9840851 C7.39354396,19.418682 7.39354396,19.7929247 7.14878679,19.6681771 C6.59808316,19.4810558 6.16975812,18.4207015 5.98619024,17.9217113 Z M10.8813336,17.9217113 C11.1872801,17.6722162 11.3708479,17.2355997 11.4932265,16.4247405 C11.799173,16.5494881 12.1051194,16.4871143 12.2886873,16.4247405 C12.4722552,17.2355997 12.7782017,17.7345899 13.2065267,17.9840851 C13.2065267,18.6701966 13.1453374,19.7929247 12.2886873,19.6058033 C11.5544158,19.418682 10.9425229,18.1712064 10.8813336,17.9217113 Z M10.33063,17.7345899 C9.59635847,17.7345899 9.16803343,16.5494881 9.16803343,16.1752454 C9.53516918,15.8010027 9.71873706,15.1148912 9.90230493,13.9297893 C10.0246835,13.9921631 10.2082514,13.9921631 10.3918193,13.9297893 C10.4530086,15.2396387 10.8201443,15.8010027 11.1260908,16.1128716 C11.0037122,17.1732259 10.6977657,17.7345899 10.33063,17.7345899 Z M6.53689387,16.1752454 C6.65927245,15.9257503 6.65927245,15.8633765 7.02640821,13.9297893 C7.14878679,13.9297893 7.20997608,13.9297893 7.33235467,13.9297893 C7.33235467,15.2396387 7.69949042,15.8633765 7.88305829,16.1128716 C7.821869,16.7989832 7.94424759,17.7345899 7.39354396,17.7345899 C7.14878679,17.7345899 6.84284033,17.422721 6.53689387,16.1752454 Z M5.31310803,13.9921631 C5.49667591,14.0545369 5.37429732,15.6762552 5.61905449,16.2376192 C5.61905449,16.2376192 5.61905449,17.7969637 5.49667591,17.6722162 C4.57883653,16.5494881 5.19072945,13.9297893 5.31310803,13.9921631 Z M12.6558231,16.1752454 C13.0841481,15.8633765 13.3289053,15.1772649 13.696041,13.9297893 C13.9407982,13.9921631 14.2467447,13.9921631 14.4303125,13.9297893 C14.5526911,14.865396 14.7974483,15.5515076 15.2869626,16.0504979 C15.164584,17.0484783 14.6750697,17.7345899 14.0631768,17.7345899 C13.0841481,17.7345899 12.7170124,16.3623668 12.6558231,16.1752454 Z M7.63830113,13.742668 C8.12781546,13.5555467 8.43376192,12.4951924 8.49495121,12.3704448 C8.6173298,12.4951924 8.86208697,12.4951924 8.98446555,12.3704448 C8.98446555,13.181304 9.22922272,13.5555467 9.4127906,13.6802942 C9.22922272,14.7406485 8.98446555,15.9881241 8.43376192,15.9881241 C7.94424759,15.9881241 7.69949042,14.865396 7.63830113,13.742668 Z M6.10856883,16.0504979 C5.68024378,16.0504979 5.5578652,14.4287796 5.68024378,13.742668 C5.68024378,13.742668 6.04737953,13.181304 6.2921367,12.3704448 C6.35332599,12.3704448 6.47570458,12.4328186 6.53689387,12.3704448 C6.47570458,13.181304 6.59808316,13.5555467 6.72046175,13.742668 C6.72046175,13.742668 6.41451529,16.0504979 6.10856883,16.0504979 Z M10.758955,13.742668 C11.0037122,13.6179204 11.4932265,12.9318089 11.7379837,12.3080711 C11.9827409,12.4328186 12.227498,12.4328186 12.5334445,12.3704448 C12.6558231,13.0565564 12.8393909,13.4931729 13.267716,13.742668 C13.0841481,14.865396 12.7170124,15.9881241 11.9215516,15.9881241 C11.1872801,15.9881241 10.8201443,14.4911534 10.758955,13.742668 Z M11.3096586,12.0585759 C10.9425229,13.0565564 10.5753871,13.6179204 10.0858728,13.6179204 C9.47397989,13.6179204 9.4127906,12.3080711 9.4127906,12.1833235 C9.90230493,11.8090808 10.2694407,11.0605955 10.5753871,10.4368577 C10.6977657,10.4368577 10.8201443,10.4368577 11.0037122,10.4368577 C10.8813336,11.3724644 11.1260908,11.8090808 11.3096586,12.0585759 Z M8.31138334,10.4992314 C8.00543688,11.3724644 8.12781546,11.8090808 8.25019405,12.1209497 C7.76067971,13.3684253 7.51592254,13.6802942 7.14878679,13.6802942 C6.78165104,13.6179204 6.78165104,12.8694351 6.90402962,12.2456973 C7.27116537,11.9962022 8.06662617,10.5616052 8.06662617,10.4992314 C8.12781546,10.4992314 8.25019405,10.4992314 8.31138334,10.4992314 Z M6.53689387,10.5616052 C6.72046175,10.4992314 6.04737953,11.4348381 6.10856883,11.8714546 C6.16975812,12.4951924 5.43548661,13.5555467 5.37429732,13.4931729 C5.12954015,13.4307991 5.61905449,11.185343 6.53689387,10.5616052 Z M15.2257733,12.0585759 C15.0422055,12.7446875 14.7974483,13.6179204 13.7572303,13.6179204 C13.2065267,13.5555467 12.9005802,12.8070613 12.7782017,12.1833235 C13.3900946,11.746707 13.696041,10.9982217 13.8796089,10.4368577 C14.0631768,10.4992314 14.3691232,10.4992314 14.5526911,10.4368577 C14.6750697,11.3724644 14.9810162,11.8090808 15.2257733,12.0585759 Z M6.90402962,10.3744839 C7.02640821,10.3121101 7.821869,9.25175583 8.25019405,9.25175583 C8.49495121,9.31412961 7.821869,9.93786741 7.88305829,10.2497363 C7.69949042,10.5616052 6.84284033,12.1209497 6.53689387,12.1209497 C6.2921367,12.1209497 6.2921367,11.3100906 6.90402962,10.3744839 Z M21.9565955,18.1088326 C21.8954062,19.0444393 21.8954062,19.5434296 22.078974,19.8552985 C21.8342169,20.3542887 21.1611347,21.1027741 20.4880525,20.8532789 C20.2432953,20.7909052 20.2432953,20.2919149 20.3044846,19.8552985 C20.8551882,19.5434296 21.222324,18.9196918 21.4670811,18.1088326 C21.5894597,18.1712064 21.7730276,18.1712064 21.9565955,18.1088326 Z M24.4041671,18.1088326 C24.4653564,18.1712064 24.587735,18.1712064 24.7101136,18.0464588 C24.4653564,19.418682 24.4041671,19.5434296 24.4653564,19.7305509 C24.0370314,20.54141 23.6087063,20.8532789 23.0580027,20.8532789 C22.8132455,20.8532789 22.9356241,20.4166625 23.2415706,19.8552985 C23.2415706,19.8552985 23.9758421,19.2315607 24.4041671,18.1088326 Z M25.3831958,19.7305509 C25.1384386,19.980046 24.8936815,20.1047936 24.7101136,20.54141 C24.6489243,20.6661576 25.8115209,20.7909052 26.4234138,18.1712064 C26.3010352,17.9840851 25.9338994,19.1691869 25.3831958,19.7305509 Z M18.3464272,18.1088326 C18.3464272,18.857318 18.5299951,19.5434296 18.8971309,19.980046 C18.5911844,21.0404003 17.7345343,21.0404003 17.4285879,20.9780265 C17.0002628,20.8532789 16.8778842,20.4790363 16.7555056,19.8552985 C17.24502,19.418682 17.4897771,18.6701966 17.6121557,18.1088326 C17.8569129,18.1712064 18.1016701,18.1712064 18.3464272,18.1088326 Z M23.8534635,16.3623668 C23.8534635,17.1108521 23.9146528,17.6098424 24.2205993,17.8593375 C23.9758421,18.4830753 23.1803813,19.6681771 22.690867,19.6681771 C22.4461098,19.6681771 22.3237312,19.2315607 22.4461098,17.9217113 C22.8132455,17.6722162 23.119192,17.0484783 23.3027599,16.3623668 C23.4251385,16.4247405 23.6087063,16.4871143 23.8534635,16.3623668 Z M26.056278,16.4871143 C26.056278,16.9861046 26.056278,17.7969637 26.1786566,17.9840851 C25.9338994,18.4830753 25.5055744,19.5434296 25.0160601,19.7305509 C24.7101136,19.7929247 24.7713029,19.418682 25.0772494,18.0464588 C25.0772494,18.0464588 25.5055744,17.6098424 25.8115209,16.4871143 C25.8727101,16.4871143 25.9950887,16.4871143 26.056278,16.4871143 Z M20.610431,16.3623668 C20.7328096,17.2355997 20.8551882,17.6722162 21.222324,17.8593375 C21.1611347,18.1712064 20.4880525,19.418682 19.8149702,19.5434296 C18.9583202,19.7305509 18.8971309,18.5454491 18.8971309,17.9217113 C19.3254559,17.6722162 19.6314024,17.1108521 19.8149702,16.3623668 C19.9985381,16.4247405 20.3044846,16.4871143 20.610431,16.3623668 Z M22.9356241,16.1752454 C22.8744348,16.5494881 22.3849205,17.7345899 21.7730276,17.7345899 C21.4058918,17.7345899 21.0999454,17.1108521 20.9775668,16.1128716 C21.2835132,15.8633765 21.650649,15.2396387 21.7118383,13.9297893 C21.8954062,13.9921631 22.0177848,13.9921631 22.2013526,13.9297893 C22.4461098,15.0525174 22.6296777,15.8010027 22.9356241,16.1752454 Z M25.0772494,13.9297893 C25.3831958,15.8633765 25.4443851,15.9257503 25.5667637,16.1752454 C25.2608172,17.3603472 24.9548708,17.7345899 24.7101136,17.7345899 C24.15941,17.7345899 24.2817886,16.7366094 24.2205993,16.1128716 C24.4653564,15.8633765 24.7713029,15.2396387 24.7713029,13.9297893 C24.8936815,13.9921631 24.9548708,13.9297893 25.0772494,13.9297893 Z M26.3622245,16.1752454 C26.6681709,15.6762552 26.5457924,14.0545369 26.6681709,13.9297893 C26.8517388,13.8674156 27.4024425,16.6118619 26.4846031,17.6098424 C26.3622245,17.7345899 26.3622245,16.1752454 26.3622245,16.1752454 Z M18.5299951,13.9297893 C18.713563,15.1772649 19.0195094,15.8633765 19.5702131,16.1752454 C19.5090238,16.3623668 19.0195094,17.7345899 18.1628594,17.7345899 C17.4897771,17.7969637 17.1226414,16.9861046 16.9390735,16.0504979 C17.3673986,15.5515076 17.673345,14.865396 17.7957236,13.9297893 C17.9181022,13.9921631 18.2240486,13.9921631 18.5299951,13.9297893 Z M23.6087063,12.3704448 C23.6087063,12.4951924 23.9758421,13.5555467 24.4041671,13.8674156 C24.4041671,14.9277698 24.0982207,16.1128716 23.6087063,16.1128716 C23.0580027,16.1128716 22.8132455,14.9277698 22.6296777,13.8050418 C22.8132455,13.6179204 23.0580027,13.181304 23.0580027,12.4328186 C23.2415706,12.4951924 23.4251385,12.4951924 23.6087063,12.3704448 Z M26.3622245,13.742668 C26.4234138,14.4287796 26.3010352,16.0504979 25.9950887,15.9881241 C25.6891423,15.9881241 25.3831958,13.6802942 25.3831958,13.6802942 C25.5055744,13.4931729 25.627953,13.0565564 25.5667637,12.3704448 C25.627953,12.4328186 25.7503316,12.4328186 25.8115209,12.3704448 C26.056278,13.181304 26.3622245,13.742668 26.3622245,13.742668 Z M20.3656739,12.3704448 C20.610431,12.9318089 21.0387561,13.6179204 21.4058918,13.8050418 C21.3447025,14.5535271 20.9163775,16.0504979 20.2432953,16.0504979 C19.3254559,16.1128716 19.0806987,14.9901436 18.8971309,13.8050418 C19.2642666,13.5555467 19.5090238,13.0565564 19.5702131,12.4328186 C19.8149702,12.4951924 20.1209167,12.4951924 20.3656739,12.3704448 Z M21.8954062,13.5555467 C21.4670811,13.6179204 21.0999454,13.0565564 20.6716203,12.0585759 C20.9163775,11.8090808 21.0999454,11.3100906 20.9775668,10.4368577 C21.1611347,10.4992314 21.2835132,10.4992314 21.4058918,10.4368577 C21.7730276,11.1229692 22.1401633,11.8090808 22.5684884,12.1209497 C22.5684884,12.3080711 22.5072991,13.5555467 21.8954062,13.5555467 Z M23.8534635,12.0585759 C23.9146528,11.8090808 24.0370314,11.3724644 23.6698956,10.4368577 C23.7922742,10.4368577 23.8534635,10.4368577 23.9146528,10.4368577 C23.9146528,10.4992314 24.7713029,11.9962022 25.0772494,12.1833235 C25.1996279,12.8694351 25.1996279,13.5555467 24.8324922,13.6179204 C24.5265457,13.6179204 24.2817886,13.3060515 23.8534635,12.0585759 Z M25.9338994,11.8714546 C25.9950887,11.4348381 25.3831958,10.4992314 25.4443851,10.5616052 C26.4234138,11.185343 26.7905495,13.4307991 26.6069817,13.4931729 C26.5457924,13.5555467 25.8727101,12.4328186 25.9338994,11.8714546 Z M18.1628594,13.5555467 C17.24502,13.6179204 17.0002628,12.7446875 16.8166949,12.0585759 C17.1226414,11.8714546 17.4285879,11.3100906 17.4897771,10.4368577 C17.673345,10.4992314 17.9792915,10.4992314 18.1628594,10.4368577 C18.3464272,10.9982217 18.6523737,11.746707 19.141888,12.1209497 C19.0806987,12.8694351 18.7747523,13.4931729 18.1628594,13.5555467 Z M23.8534635,9.25175583 C24.15941,9.25175583 25.0772494,10.3121101 25.1384386,10.3744839 C25.8115209,11.3724644 25.8115209,12.1209497 25.5667637,12.1209497 C25.1996279,12.1209497 24.4041671,10.5616052 24.2205993,10.2497363 C24.2817886,9.93786741 23.6087063,9.25175583 23.8534635,9.25175583 Z M10.2694407,9.43887717 C10.1470621,9.81311985 10.0858728,10.1873625 10.2694407,10.3744839 C9.90230493,11.1229692 9.29041201,12.1833235 8.73970838,12.1209497 C8.12781546,11.9962022 8.6173298,10.5616052 8.67851909,10.4368577 C9.04565484,10.2497363 9.90230493,9.06463449 10.2082514,9.06463449 C10.3918193,9.12700827 10.2694407,9.43887717 10.2694407,9.43887717 Z M13.1453374,9.37650339 C13.1453374,9.75074607 13.2065267,10.1873625 13.5124732,10.3744839 C13.267716,11.1229692 12.7782017,12.1209497 11.9827409,12.0585759 C11.4320372,11.9962022 11.3096586,11.0605955 11.4320372,10.3744839 C11.9827409,10.1873625 12.4722552,9.00226071 12.8393909,9.00226071 C13.1453374,9.00226071 13.1453374,9.31412961 13.1453374,9.37650339 Z M21.8342169,10.3744839 C21.9565955,10.1873625 21.9565955,9.81311985 21.8342169,9.43887717 C21.8342169,9.37650339 21.7118383,9.06463449 21.8954062,9.06463449 C22.2013526,9.06463449 23.0580027,10.2497363 23.4251385,10.4368577 C23.4863278,10.5616052 23.9758421,11.9962022 23.3639492,12.1209497 C22.7520563,12.1833235 22.2013526,11.0605955 21.8342169,10.3744839 Z M18.5911844,10.3744839 C18.8359416,10.1873625 18.8971309,9.75074607 18.9583202,9.37650339 C18.9583202,9.31412961 18.9583202,9.00226071 19.2642666,9.00226071 C19.5702131,8.93988693 20.182106,10.1873625 20.6716203,10.3744839 C20.8551882,11.185343 20.7328096,11.9962022 20.1209167,12.0585759 C19.2642666,12.1833235 18.8359416,11.0605955 18.5911844,10.3744839 Z M16.0212341,9.00226071 C16.6331271,9.00226071 16.6331271,10.1873625 17.1226414,10.4368577 C17.1226414,10.7487266 16.9390735,12.1209497 15.9600448,12.1209497 C15.1033948,12.1209497 14.9198269,10.9982217 14.8586376,10.4368577 C15.5929091,10.1249888 15.3481519,9.00226071 16.0212341,9.00226071 Z"/><filter id="srn-d" width="115.9%" height="129.2%" x="-8%" y="-10.4%" filterUnits="objectBoundingBox"><feOffset dy=".5" in="SourceAlpha" result="shadowOffsetOuter1"/><feGaussianBlur in="shadowOffsetOuter1" result="shadowBlurOuter1" stdDeviation=".5"/><feColorMatrix in="shadowBlurOuter1" values="0 0 0 0 0 0 0 0 0 0 0 0 0 0 0 0 0 0 0.204257246 0"/></filter></defs><g fill="none" fill-rule="evenodd"><use fill="#000" filter="url(#srn-a)" xlink:href="#srn-b"/><use fill="#1C1C1C" xlink:href="#srn-b"/><use fill="url(#srn-c)" style="mix-blend-mode:soft-light" xlink:href="#srn-b"/><circle cx="16" cy="15" r="14.5" stroke="#000" stroke-opacity=".097"/><g fill-rule="nonzero"><use fill="#000" filter="url(#srn-d)" xlink:href="#srn-e"/><use fill="#FFF" fill-rule="evenodd" xlink:href="#srn-e"/></g></g></svg>

<svg xmlns="http://www.w3.org/2000/svg" xmlns:xlink="http://www.w3.org/1999/xlink" width="32" height="32" viewBox="0 0 32 32"><defs><linearGradient id="c" x1="50%" x2="50%" y1="0%" y2="100%"><stop offset="0%" stop-color="#FFF" stop-opacity=".5"/><stop offset="100%" stop-opacity=".5"/></linearGradient><circle id="b" cx="16" cy="15" r="15"/><filter id="a" width="111.7%" height="111.7%" x="-5.8%" y="-4.2%" filterUnits="objectBoundingBox"><feOffset dy=".5" in="SourceAlpha" result="shadowOffsetOuter1"/><feGaussianBlur in="shadowOffsetOuter1" result="shadowBlurOuter1" stdDeviation=".5"/><feComposite in="shadowBlurOuter1" in2="SourceAlpha" operator="out" result="shadowBlurOuter1"/><feColorMatrix in="shadowBlurOuter1" values="0 0 0 0 0 0 0 0 0 0 0 0 0 0 0 0 0 0 0.199473505 0"/></filter><path id="e" d="M15.715 12.433c.306.125.612.062.857 0 .184.624.49 1.185.795 1.434-.183 1.56-.734 2.121-1.346 2.121-.856 0-1.285-1.809-1.285-2.12.184-.125.735-.5.98-1.435zm-.918 5.489c.368-.312.612-.811.918-1.622.245.125.612.062.857 0 .184.873.367 1.435.795 1.684-.122.998-.734 1.684-1.285 1.684-.795 0-1.162-1.247-1.285-1.746zm-4.895 1.933c.245-.312.245-.81.123-1.746.183.062.367.062.49 0 .366.873.672 1.434 1.162 1.746.061.437 0 .936-.184.998-.673.312-1.285-.499-1.59-.998zm-2.57-1.684c.123 0 .184 0 .306.063.429 1.122 1.163 1.746 1.163 1.746.245.499.367.998.183.998-.55.062-.979-.312-1.407-1.123.061-.187 0-.312-.245-1.684zm-1.652 0c.612 2.62 1.775 2.495 1.714 2.37-.245-.436-.49-.623-.735-.81-.55-.562-.979-1.747-.979-1.56zm7.465 1.684c.429-.312.49-.998.551-1.87.245.061.55.061.734 0 .123.56.306 1.371.857 1.746-.061.686-.245 1.06-.673 1.122-.306.125-1.163.125-1.469-.998zm-5.262-1.933c.245-.312.306-.811.367-1.497.184.062.429.062.55 0 .184.81.49 1.31.858 1.56.122 1.309 0 1.746-.245 1.746-.55 0-1.285-1.186-1.53-1.81zm-1.897 0c0-.125.061-.936.123-1.497h.244c.306 1.185.735 1.56.735 1.56.306 1.434.306 1.808.06 1.683-.55-.187-.978-1.247-1.162-1.746zm4.895 0c.306-.25.49-.686.612-1.497.306.124.612.062.796 0 .183.81.49 1.31.918 1.56 0 .685-.062 1.808-.918 1.62-.735-.186-1.346-1.434-1.408-1.683zm-.55-.187c-.735 0-1.163-1.186-1.163-1.56.367-.374.55-1.06.734-2.245.123.062.306.062.49 0 .061 1.31.428 1.871.734 2.183-.122 1.06-.428 1.622-.795 1.622zm-3.794-1.56c.122-.25.122-.312.49-2.245h.305c0 1.31.367 1.933.551 2.183-.061.686.061 1.622-.49 1.622-.244 0-.55-.312-.856-1.56zm-1.224-2.183c.184.063.061 1.684.306 2.246 0 0 0 1.559-.122 1.434-.918-1.123-.306-3.742-.184-3.68zm7.343 2.183c.428-.312.673-.998 1.04-2.245.245.062.55.062.734 0 .123.935.367 1.622.857 2.12-.122.998-.612 1.685-1.224 1.685-.979 0-1.346-1.373-1.407-1.56zm-5.018-2.432c.49-.187.796-1.248.857-1.373a.367.367 0 0 0 .49 0c0 .811.244 1.186.428 1.31-.184 1.06-.429 2.308-.98 2.308-.489 0-.734-1.123-.795-2.245zm-1.53 2.307c-.428 0-.55-1.621-.428-2.307 0 0 .367-.562.612-1.373.061 0 .184.063.245 0-.061.811.061 1.186.183 1.373 0 0-.305 2.307-.611 2.307zm4.651-2.307c.245-.125.734-.811.979-1.435.245.125.49.125.795.062.123.687.306 1.123.735 1.373-.184 1.122-.551 2.245-1.346 2.245-.735 0-1.102-1.497-1.163-2.245zm.55-1.684c-.366.998-.734 1.559-1.223 1.559-.612 0-.673-1.31-.673-1.435.49-.374.856-1.122 1.162-1.746h.429c-.123.935.122 1.372.306 1.622zm-2.998-1.56c-.306.873-.183 1.31-.06 1.622-.49 1.247-.735 1.56-1.102 1.56-.367-.063-.367-.812-.245-1.435.367-.25 1.163-1.684 1.163-1.747h.244zm-1.774.063c.183-.063-.49.873-.428 1.31.06.623-.674 1.684-.735 1.621-.244-.062.245-2.308 1.163-2.931zm8.689 1.497c-.184.686-.429 1.559-1.469 1.559-.55-.062-.856-.81-.979-1.435.612-.436.918-1.185 1.102-1.746.183.062.49.062.673 0 .122.935.428 1.372.673 1.622zm-8.322-1.685c.122-.062.918-1.122 1.346-1.122.245.062-.428.686-.367.998-.184.312-1.04 1.87-1.346 1.87-.245 0-.245-.81.367-1.746zm15.053 7.735c-.062.935-.062 1.434.122 1.746-.245.5-.918 1.248-1.59.998-.246-.062-.246-.561-.185-.998.551-.312.918-.935 1.163-1.746.122.062.306.062.49 0zm2.447 0c.061.062.184.062.306-.063-.245 1.373-.306 1.497-.245 1.685-.428.81-.856 1.122-1.407 1.122-.245 0-.122-.436.184-.998 0 0 .734-.623 1.162-1.746zm.98 1.622c-.246.249-.49.374-.674.81-.061.125 1.102.25 1.713-2.37-.122-.187-.49.998-1.04 1.56zm-7.038-1.622c0 .748.184 1.434.551 1.871-.306 1.06-1.162 1.06-1.468.998-.429-.125-.551-.499-.673-1.123.489-.436.734-1.185.856-1.746.245.062.49.062.734 0zm5.507-1.747c0 .749.062 1.248.368 1.497-.245.624-1.04 1.81-1.53 1.81-.245 0-.367-.437-.245-1.747.367-.25.673-.874.857-1.56a.562.562 0 0 0 .55 0zm2.203.125c0 .5 0 1.31.123 1.497-.245.5-.673 1.56-1.163 1.747-.306.062-.245-.312.061-1.685 0 0 .429-.436.735-1.559h.244zm-5.446-.125c.123.874.245 1.31.612 1.497-.06.312-.734 1.56-1.407 1.684-.857.188-.918-.998-.918-1.621.428-.25.734-.811.918-1.56.184.063.49.125.795 0zm2.326-.187c-.062.374-.551 1.56-1.163 1.56-.367 0-.673-.624-.795-1.622.306-.25.673-.873.734-2.183a.664.664 0 0 0 .49 0c.244 1.123.428 1.871.734 2.245zm2.141-2.245c.306 1.933.367 1.996.49 2.245-.306 1.185-.612 1.56-.857 1.56-.55 0-.428-.998-.49-1.622.245-.25.551-.873.551-2.183.123.062.184 0 .306 0zm1.285 2.245c.306-.499.184-2.12.306-2.245.184-.063.734 2.682-.183 3.68-.123.125-.123-1.435-.123-1.435zM18.53 13.93c.184 1.247.49 1.933 1.04 2.245-.061.187-.55 1.56-1.407 1.56-.673.062-1.04-.749-1.224-1.685.428-.498.734-1.185.857-2.12.122.062.428.062.734 0zm5.079-1.56c0 .125.367 1.186.795 1.497 0 1.06-.306 2.246-.795 2.246-.551 0-.796-1.185-.98-2.308.184-.187.429-.624.429-1.372a.585.585 0 0 0 .55-.063zm2.753 1.373c.061.686-.061 2.307-.367 2.245-.306 0-.612-2.308-.612-2.308.123-.187.245-.623.184-1.31a.183.183 0 0 0 .245 0c.244.811.55 1.373.55 1.373zm-5.996-1.373c.244.562.673 1.248 1.04 1.435-.061.749-.49 2.245-1.163 2.245-.918.063-1.162-1.06-1.346-2.245.367-.25.612-.748.673-1.372.245.062.55.062.796-.063zm1.53 1.186c-.429.062-.796-.5-1.224-1.497.244-.25.428-.749.306-1.622.183.062.306.062.428 0 .367.686.734 1.372 1.162 1.684 0 .187-.06 1.435-.673 1.435zm1.957-1.497c.062-.25.184-.687-.183-1.622h.245c0 .062.856 1.56 1.162 1.746.123.686.123 1.373-.245 1.435-.305 0-.55-.312-.979-1.56zm2.08-.188c.062-.436-.55-1.372-.489-1.31.98.624 1.347 2.87 1.163 2.932-.061.063-.734-1.06-.673-1.622zm-7.77 1.685c-.918.062-1.163-.811-1.346-1.497.306-.188.612-.749.673-1.622.183.062.49.062.673 0 .183.561.49 1.31.979 1.684-.061.748-.367 1.372-.98 1.435zm5.69-4.304c.306 0 1.224 1.06 1.285 1.122.674.998.674 1.747.429 1.747-.367 0-1.163-1.56-1.346-1.871.06-.312-.612-.998-.368-.998zm-13.584.187c-.122.374-.183.748 0 .935-.367.749-.979 1.81-1.53 1.747-.611-.125-.122-1.56-.06-1.684.367-.187 1.223-1.372 1.53-1.372.183.062.06.374.06.374zm2.876-.062c0 .374.062.81.367.997-.244.749-.734 1.747-1.53 1.685-.55-.063-.672-.998-.55-1.685.55-.187 1.04-1.372 1.407-1.372.306 0 .306.312.306.375zm8.69.997c.122-.187.122-.56 0-.935 0-.062-.123-.374.06-.374.306 0 1.163 1.185 1.53 1.372.061.125.55 1.56-.061 1.684-.612.062-1.163-1.06-1.53-1.747zm-3.244 0c.245-.187.306-.623.367-.997 0-.063 0-.375.306-.375.306-.062.918 1.185 1.408 1.372.183.811.06 1.622-.551 1.685-.857.124-1.285-.998-1.53-1.685zm-2.57-1.372c.612 0 .612 1.185 1.102 1.435 0 .312-.184 1.684-1.163 1.684-.857 0-1.04-1.123-1.101-1.684.734-.312.49-1.435 1.162-1.435z"/><filter id="d" width="115.9%" height="129.2%" x="-8%" y="-10.4%" filterUnits="objectBoundingBox"><feOffset dy=".5" in="SourceAlpha" result="shadowOffsetOuter1"/><feGaussianBlur in="shadowOffsetOuter1" result="shadowBlurOuter1" stdDeviation=".5"/><feColorMatrix in="shadowBlurOuter1" values="0 0 0 0 0 0 0 0 0 0 0 0 0 0 0 0 0 0 0.204257246 0"/></filter></defs><g fill="none" fill-rule="evenodd"><use fill="#000" filter="url(#a)" xlink:href="#b"/><use fill="#1C1C1C" xlink:href="#b"/><use fill="url(#c)" style="mix-blend-mode:soft-light" xlink:href="#b"/><circle cx="16" cy="15" r="14.5" stroke="#000" stroke-opacity=".097"/><g fill-rule="nonzero"><use fill="#000" filter="url(#d)" xlink:href="#e"/><use fill="#FFF" fill-rule="evenodd" xlink:href="#e"/></g></g></svg>
